assets/images/arrw_right.svg

<svg width="93" height="47" viewBox="0 0 93 47" fill="none" xmlns="http://www.w3.org/2000/svg">
<path d="M40.5569 18.4768C31.623 22.1872 28.5361 22.9534 20.986 27.1091C13.3128 31.3327 8.4556 34.0423 1.72727 40.2929C-1.33446 42.0866 2.87396 48.7736 5.70469 45.5056C11.587 42.0164 18.5983 38.4453 24.4806 34.9561C30.3629 31.4669 37.5983 28.7864 44.0808 26.4829C54.5188 22.7737 65.0212 21.8215 74.5661 22.1371C68.6838 25.6263 65.8531 28.8943 63.0223 32.1623C60.1916 35.4303 63.1117 39.5106 67.005 38.1806C73.3364 33.7924 73.2986 33.2712 78.1306 28.9917C80.0722 27.2721 81.2932 26.143 85.092 23.51L89.8241 21.0311C92.7275 18.7654 92.5575 16.4201 90.8464 14.8314C81.25 9.4014 74.6606 0.690625 64.3039 0.917459C61.2523 1.13866 60.8516 2.21551 61.6578 4.77657C63.8118 7.5825 64.5563 8.31438 70.8804 10.9188L75.5484 12.938C63.1212 10.776 52.5424 14.5452 40.5569 18.4768Z" fill="#FD2828"/>
</svg>

<svg width="93" height="47" fill="none" xmlns="http://www.w3.org/2000/svg"><path d="M40.557 18.477c-8.934 3.71-12.02 4.476-19.571 8.632-7.673 4.224-12.53 6.933-19.259 13.184-3.061 1.794 1.147 8.48 3.978 5.213 5.882-3.49 12.893-7.06 18.776-10.55 5.882-3.49 13.117-6.17 19.6-8.473 10.438-3.71 20.94-4.662 30.485-4.346-5.882 3.49-8.713 6.757-11.544 10.025-2.83 3.268.09 7.349 3.983 6.019 6.331-4.389 6.294-4.91 11.126-9.19 1.941-1.719 3.162-2.848 6.961-5.481l4.732-2.479c2.904-2.266 2.734-4.61 1.022-6.2C81.25 9.401 74.661.691 64.304.917c-3.052.222-3.452 1.299-2.646 3.86 2.154 2.805 2.898 3.537 9.222 6.142l4.668 2.019c-12.427-2.162-23.006 1.607-34.991 5.539z" fill="#FD2828"/></svg>
